svgs/regular/house-medical-flag.svg

<svg xmlns="http://www.w3.org/2000/svg" viewBox="0 0 640 512"><!--! Font Awesome Pro 6.6.0 by @fontawesome - https://fontawesome.com License - https://fontawesome.com/license (Commercial License) Copyright 2024 Fonticons, Inc. --><path d="M496 24l0 8 128 0c8.8 0 16 7.2 16 16l0 128c0 8.8-7.2 16-16 16l-128 0 0 320-48 0 0-320 0-160 0-8c0-13.3 10.7-24 24-24s24 10.7 24 24zM286.3 36.7L416 133l0 59.8L272 85.9 112 204.6 112 432c0 17.7 14.3 32 32 32l256 0c5.8 0 11.3-1.6 16-4.3l0 50.7c-5.2 1-10.5 1.6-16 1.6l-256 0c-44.2 0-80-35.8-80-80l0-191.8L38.3 259.3c-10.6 7.9-25.7 5.7-33.6-5s-5.7-25.7 5-33.6l248-184c8.5-6.3 20.1-6.3 28.6 0zM240 208c0-8.8 7.2-16 16-16l32 0c8.8 0 16 7.2 16 16l0 48 48 0c8.8 0 16 7.2 16 16l0 32c0 8.8-7.2 16-16 16l-48 0 0 48c0 8.8-7.2 16-16 16l-32 0c-8.8 0-16-7.2-16-16l0-48-48 0c-8.8 0-16-7.2-16-16l0-32c0-8.8 7.2-16 16-16l48 0 0-48z"/></svg>

<svg xmlns="http://www.w3.org/2000/svg" viewBox="0 0 640 512"><!--! Font Awesome Pro 6.4.2 by @fontawesome - https://fontawesome.com License - https://fontawesome.com/license (Commercial License) Copyright 2023 Fonticons, Inc. --><path d="M496 24v8H624c8.8 0 16 7.2 16 16V176c0 8.8-7.2 16-16 16H496V512H448V192 32 24c0-13.3 10.7-24 24-24s24 10.7 24 24zM286.3 36.7L416 133v59.8L272 85.9 112 204.6V432c0 17.7 14.3 32 32 32l256 0c5.8 0 11.3-1.6 16-4.3v50.7c-5.2 1-10.5 1.6-16 1.6l-256 0c-44.2 0-80-35.8-80-80V240.2L38.3 259.3c-10.6 7.9-25.7 5.7-33.6-5s-5.7-25.7 5-33.6l248-184c8.5-6.3 20.1-6.3 28.6 0zM240 208c0-8.8 7.2-16 16-16h32c8.8 0 16 7.2 16 16v48h48c8.8 0 16 7.2 16 16v32c0 8.8-7.2 16-16 16H304v48c0 8.8-7.2 16-16 16H256c-8.8 0-16-7.2-16-16V320H192c-8.8 0-16-7.2-16-16V272c0-8.8 7.2-16 16-16h48V208z"/></svg>
